src/link.svg

<svg viewBox="0 0 16 16" fill="none" xmlns="http://www.w3.org/2000/svg"><path d="M9.44411 6.55732C9.5756 6.68882 9.69217 6.82957 9.79384 6.97749L9.06794 7.70305C8.98079 7.54578 8.87048 7.39791 8.737 7.26443C8.00276 6.53018 6.83303 6.49681 6.0592 7.1643L5.95143 7.26443L3.77692 9.43894C3.00771 10.2082 3.00771 11.4553 3.77692 12.2245C4.51117 12.9588 5.68087 12.9921 6.4547 12.3246L6.56247 12.2245L7.73452 11.0519L8.44163 11.759L7.26958 12.9316C6.10984 14.0913 4.22955 14.0914 3.06981 12.9316C1.91008 11.7719 1.91008 9.89157 3.06981 8.73184L5.24433 6.55732C6.40406 5.39759 8.28438 5.39759 9.44411 6.55732ZM12.9991 3.00231C14.1589 4.16205 14.1588 6.04233 12.9991 7.20207L10.8246 9.37658C9.66486 10.5363 7.78457 10.5363 6.62483 9.3766C6.51651 9.26827 6.41828 9.15365 6.33019 9.03392L7.05025 8.31473C7.12856 8.44083 7.22245 8.56001 7.33194 8.66949C8.06619 9.40374 9.23589 9.4371 10.0097 8.7696L10.1175 8.66947L12.292 6.49496C13.0612 5.72575 13.0612 4.47863 12.292 3.70942C11.5578 2.97517 10.3881 2.94179 9.61422 3.60928L9.50645 3.70941L8.32491 4.89005L7.6178 4.18294L8.79935 3.0023C9.95908 1.84257 11.8394 1.84258 12.9991 3.00231Z" fill="#111111"/></svg>

<svg viewBox="0 0 16 16" fill="none" xmlns="http://www.w3.org/2000/svg"><path d="M9.444 6.557c.132.132.248.273.35.42l-.726.726a1.97 1.97 0 0 0-3.009-.539l-.108.1L3.777 9.44a1.97 1.97 0 0 0 2.678 2.886l.107-.1 1.173-1.173.707.707-1.172 1.173a2.97 2.97 0 1 1-4.2-4.2l2.174-2.175a2.97 2.97 0 0 1 4.2 0ZM13 3.002a2.97 2.97 0 0 1 0 4.2l-2.174 2.175a2.97 2.97 0 0 1-4.495-.343l.72-.72a1.97 1.97 0 0 0 2.96.455l.107-.1 2.175-2.174a1.97 1.97 0 0 0-2.678-2.886l-.108.1L8.325 4.89l-.707-.707 1.181-1.18a2.97 2.97 0 0 1 4.2 0Z" fill="#111111"/></svg>
